Papirus-GTK/48x48/apps/trimage.svg

<?xml version="1.0" encoding="UTF-8" standalone="no"?>
<!-- Created with Inkscape (http://www.inkscape.org/) -->

<svg
   xmlns:dc="http://purl.org/dc/elements/1.1/"
   xmlns:cc="http://creativecommons.org/ns#"
   xmlns:rdf="http://www.w3.org/1999/02/22-rdf-syntax-ns#"
   xmlns:svg="http://www.w3.org/2000/svg"
   xmlns="http://www.w3.org/2000/svg"
   xmlns:sodipodi="http://sodipodi.sourceforge.net/DTD/sodipodi-0.dtd"
   xmlns:inkscape="http://www.inkscape.org/namespaces/inkscape"
   width="48"
   height="48"
   viewBox="0 0 48 48.000001"
   id="svg4190"
   version="1.1"
   inkscape:version="0.91 r13725"
   sodipodi:docname="trimage.svg">
  <defs
     id="defs4192" />
  <sodipodi:namedview
     id="base"
     pagecolor="#585858"
     bordercolor="#666666"
     borderopacity="1.0"
     inkscape:pageopacity="0"
     inkscape:pageshadow="2"
     inkscape:zoom="1"
     inkscape:cx="1.5347092"
     inkscape:cy="23.102542"
     inkscape:document-units="px"
     inkscape:current-layer="layer1"
     showgrid="false"
     units="px"
     inkscape:window-width="1600"
     inkscape:window-height="849"
     inkscape:window-x="0"
     inkscape:window-y="0"
     inkscape:window-maximized="1" />
  <metadata
     id="metadata4195">
    <rdf:RDF>
      <cc:Work
         rdf:about="">
        <dc:format>image/svg+xml</dc:format>
        <dc:type
           rdf:resource="http://purl.org/dc/dcmitype/StillImage" />
        <dc:title></dc:title>
      </cc:Work>
    </rdf:RDF>
  </metadata>
  <g
     inkscape:label="Layer 1"
     inkscape:groupmode="layer"
     id="layer1"
     transform="translate(0,-1004.3622)">
    <path
       inkscape:connector-curvature="0"
       d="m 36.903957,1015.0436 c -12.273612,6.2318 -19.972319,15.8188 -26.869301,25.9918 3.209974,1.3338 7.370938,2.6983 11.676551,3.8905 7.907985,-4.1735 15.683633,-8.5101 18.976703,-18.3617 -1.152574,-4.1981 -2.475958,-8.2809 -3.783953,-11.5221 z"
       style="opacity:1;fill:#9cc7f4;fill-opacity:1;stroke:none"
       id="path37" />
    <path
       inkscape:connector-curvature="0"
       d="m 32.341362,1008.3672 c -5.433567,0.4569 -29.4222007,24.6442 -28.30348,28.8347 0.2846814,1.0599 2.6159906,2.4229 5.995235,3.8274 l 26.869301,-25.9919 c -1.501886,-3.7228 -2.971458,-6.3364 -4.096333,-6.6364 -0.135416,-0.035 -0.290837,-0.048 -0.466262,-0.032 z"
       style="opacity:1;fill:#63a8d3;fill-opacity:1;stroke:none"
       id="path39" />
    <path
       inkscape:connector-curvature="0"
       d="m 40.68791,1026.5658 -18.976703,18.3617 c 9.668393,2.6782 20.004634,4.4488 21.651169,2.7936 1.624992,-1.626 -0.06925,-11.6376 -2.680621,-21.1553 z"
       style="opacity:1;fill:#cde4fd;fill-opacity:1;stroke:none"
       id="path41" />
    <path
       style="opacity:0.2;fill:#ffffff;fill-opacity:1;stroke:none"
       d="M 32.339844 4.0058594 C 26.902966 4.4676728 2.9185056 28.649782 4.0371094 32.839844 C 4.046259 32.873909 4.0764973 32.910628 4.0898438 32.945312 C 5.5612428 27.004005 27.207759 5.4417707 32.339844 5.0058594 L 32.339844 5.0136719 L 32.341797 5.0136719 C 32.516326 4.9976719 32.671788 5.011875 32.806641 5.046875 C 33.931516 5.346875 35.400458 7.9607937 36.902344 11.683594 L 36.886719 11.699219 C 36.892759 11.699219 36.898297 11.689453 36.904297 11.689453 C 38.212081 14.930453 39.535117 19.011584 40.6875 23.208984 C 40.6875 23.208984 40.685547 23.208984 40.685547 23.208984 L 40.683594 23.208984 C 42.507529 29.857803 43.880528 36.73742 43.990234 40.839844 C 44.115616 36.930813 42.665182 29.432521 40.683594 22.208984 C 40.684063 22.207582 40.685078 22.206481 40.685547 22.205078 C 40.685547 22.205078 40.6875 22.203125 40.6875 22.203125 C 40.6875 22.203125 40.6875 22.201172 40.6875 22.201172 C 39.535117 18.003767 38.212081 13.922583 36.904297 10.681641 C 36.898252 10.68471 36.892761 10.688335 36.886719 10.691406 L 36.902344 10.675781 C 35.400458 6.9529814 33.931516 4.3390625 32.806641 4.0390625 C 32.671788 4.0042082 32.516326 3.9901663 32.341797 4.0058594 L 32.339844 4.0058594 z "
       transform="translate(0,1004.3622)"
       id="path4753" />
    <path
       style="opacity:0.3;fill:#000000;fill-opacity:1;stroke:none"
       d="M 4.0898438 31.945312 C 4.0023691 32.298346 3.9743759 32.604857 4.0371094 32.839844 C 4.3217908 33.899744 6.6539588 35.263469 10.033203 36.667969 L 10.050781 36.650391 C 10.045511 36.658162 10.040425 36.666056 10.035156 36.673828 C 13.24513 38.007628 17.405325 39.372253 21.710938 40.564453 C 31.379331 43.242653 41.716746 45.014575 43.363281 43.359375 C 43.852779 42.869573 44.037542 41.608888 43.990234 39.839844 C 43.950444 41.080363 43.75466 41.967768 43.363281 42.359375 C 41.716746 44.014575 31.379331 42.242653 21.710938 39.564453 C 17.405325 38.372253 13.24513 37.007628 10.035156 35.673828 C 10.040426 35.666828 10.045481 35.660391 10.050781 35.650391 L 10.033203 35.667969 C 6.7629864 34.308783 4.4921895 32.989722 4.0898438 31.945312 z "
       transform="translate(0,1004.3622)"
       id="path4763" />
  </g>
</svg>

<?xml version="1.0" encoding="UTF-8" standalone="no"?>
<svg id="svg4190" xmlns:rdf="http://www.w3.org/1999/02/22-rdf-syntax-ns#" xmlns="http://www.w3.org/2000/svg" viewBox="0 0 48 48.000001" width="48" version="1.1" xmlns:cc="http://creativecommons.org/ns#" height="48" xmlns:dc="http://purl.org/dc/elements/1.1/">
 <metadata id="metadata4195">
  <rdf:RDF>
   <cc:Work rdf:about="">
    <dc:format>image/svg+xml</dc:format>
    <dc:type rdf:resource="http://purl.org/dc/dcmitype/StillImage"/>
    <dc:title/>
   </cc:Work>
  </rdf:RDF>
 </metadata>
 <g id="layer1" transform="translate(0 -1004.4)">
  <path id="path37" d="m36.904 1015c-12.274 6.2318-19.972 15.819-26.869 25.992 3.21 1.3338 7.3709 2.6983 11.677 3.8905 7.908-4.1735 15.684-8.5101 18.977-18.362-1.1526-4.1981-2.476-8.2809-3.784-11.522z" fill="#9cc7f4"/>
  <path id="path39" d="m32.341 1008.4c-5.4336 0.4569-29.422 24.644-28.303 28.835 0.28468 1.0599 2.616 2.4229 5.9952 3.8274l26.869-25.992c-1.5019-3.7228-2.9715-6.3364-4.0963-6.6364-0.13542-0.035-0.29084-0.048-0.46626-0.032z" fill="#63a8d3"/>
  <path id="path41" d="m40.688 1026.6-18.977 18.362c9.6684 2.6782 20.005 4.4488 21.651 2.7936 1.625-1.626-0.06925-11.638-2.6806-21.155z" fill="#cde4fd"/>
  <path id="path4753" opacity=".2" d="m32.34 4.0059c-5.437 0.4618-29.422 24.644-28.303 28.834 0.0093 0.034 0.0395 0.071 0.0528 0.105 1.4714-5.941 23.118-27.503 28.25-27.939v0.0077h0.002c0.174-0.016 0.33-0.0018 0.465 0.0332 1.125 0.3 2.593 2.9139 4.095 6.6371l-0.015 0.015c0.006 0 0.011-0.01 0.017-0.01 1.308 3.241 2.631 7.323 3.784 11.52h-0.002-0.002c1.824 6.649 3.197 13.528 3.306 17.631 0.126-3.909-1.325-11.407-3.306-18.631 0-0.001 0.001-0.003 0.002-0.004l0.002-0.002v-0.002c-1.153-4.197-2.476-8.278-3.784-11.519-0.006 0.003-0.011 0.006-0.017 0.009l0.015-0.015c-1.502-3.723-2.97-6.3369-4.095-6.6369-0.135-0.0349-0.291-0.0489-0.465-0.0332h-0.002z" transform="translate(0 1004.4)" fill="#fff"/>
  <path id="path4763" opacity=".2" d="m4.0898 1037.3c-0.087475 0.353-0.11547 0.6595-0.052734 0.8945 0.28468 1.0599 2.6168 2.4236 5.9961 3.8281l0.01758-0.017c-0.0053 0.01-0.01036 0.016-0.01563 0.023 3.21 1.3338 7.3702 2.6984 11.676 3.8906 9.6684 2.6782 20.006 4.4501 21.652 2.7949 0.4895-0.4898 0.67426-1.7504 0.62695-3.5195-0.03979 1.2405-0.23557 2.1279-0.62695 2.5195-1.6465 1.6552-11.984-0.1167-21.652-2.7949-4.3056-1.1922-8.4658-2.5568-11.676-3.8906 0.0053-0.01 0.01032-0.013 0.01563-0.023l-0.01758 0.017c-3.2702-1.3591-5.541-2.6782-5.9434-3.7226z"/>
 </g>
</svg>
